Lila_HD/places/scalable/folder-videos-symbolic.svg

<?xml version="1.0" encoding="UTF-8"?>
<!-- Created with Inkscape (http://www.inkscape.org/) -->
<svg version="1.1" viewBox="0 0 16 16" xmlns="http://www.w3.org/2000/svg" xmlns:cc="http://creativecommons.org/ns#" xmlns:dc="http://purl.org/dc/elements/1.1/" xmlns:rdf="http://www.w3.org/1999/02/22-rdf-syntax-ns#">
<metadata>
<rdf:RDF>
<cc:Work rdf:about="">
<dc:format>image/svg+xml</dc:format>
<dc:type rdf:resource="http://purl.org/dc/dcmitype/StillImage"/>
<dc:title/>
</cc:Work>
</rdf:RDF>
</metadata>
<path d="m16 1h-16v4h1v-3h2v3h-2v6h2v3h-2v-3h-1v4h16v-4h-1v3h-2v-3h2v-6h-2v-3h2v3h1zm-5 1v3h-2v-3zm0 9v3h-2v-3zm-4-9v3h-2v-3zm0 9v3h-2v-3z" fill="#999" fill-opacity=".91237"/>
<path d="m19.436-1.8281v3.6562h21v-3.6562h-21zm1 17.656v2.375h21.656v-2.375h-21.656z" fill="#e6e6e6" fill-opacity=".91237"/>
</svg>

<?xml version="1.0" encoding="UTF-8" standalone="no"?>
<!-- Created with Inkscape (http://www.inkscape.org/) -->

<svg
   xmlns:dc="http://purl.org/dc/elements/1.1/"
   xmlns:cc="http://creativecommons.org/ns#"
   xmlns:rdf="http://www.w3.org/1999/02/22-rdf-syntax-ns#"
   xmlns:svg="http://www.w3.org/2000/svg"
   xmlns="http://www.w3.org/2000/svg"
   xmlns:sodipodi="http://sodipodi.sourceforge.net/DTD/sodipodi-0.dtd"
   xmlns:inkscape="http://www.inkscape.org/namespaces/inkscape"
   id="svg13094"
   height="16"
   width="16"
   version="1.1"
   inkscape:version="0.48.3.1 r9886"
   sodipodi:docname="folder-videos.svg">
  <defs
     id="defs3016" />
  <sodipodi:namedview
     pagecolor="#ffffff"
     bordercolor="#666666"
     borderopacity="1"
     objecttolerance="10"
     gridtolerance="10"
     guidetolerance="10"
     inkscape:pageopacity="0"
     inkscape:pageshadow="2"
     inkscape:window-width="1920"
     inkscape:window-height="1035"
     id="namedview3014"
     showgrid="true"
     inkscape:zoom="41.7193"
     inkscape:cx="10.862083"
     inkscape:cy="8.3173515"
     inkscape:window-x="-2"
     inkscape:window-y="23"
     inkscape:window-maximized="1"
     inkscape:current-layer="svg13094"
     inkscape:snap-bbox="true"
     inkscape:bbox-paths="true"
     inkscape:bbox-nodes="true"
     inkscape:snap-bbox-edge-midpoints="true"
     inkscape:snap-bbox-midpoints="true"
     inkscape:object-paths="true"
     inkscape:snap-intersection-paths="true"
     inkscape:object-nodes="true"
     inkscape:snap-smooth-nodes="true"
     inkscape:snap-midpoints="true"
     inkscape:snap-object-midpoints="true"
     inkscape:snap-center="true">
    <inkscape:grid
       type="xygrid"
       id="grid2982" />
  </sodipodi:namedview>
  <metadata
     id="metadata13099">
    <rdf:RDF>
      <cc:Work
         rdf:about="">
        <dc:format>image/svg+xml</dc:format>
        <dc:type
           rdf:resource="http://purl.org/dc/dcmitype/StillImage" />
        <dc:title />
      </cc:Work>
    </rdf:RDF>
  </metadata>
  <path
     id="rect2988"
     d="M 16,1 0,1 0,5 1,5 1,2 3,2 3,5 1,5 l 0,6 2,0 0,3 -2,0 0,-3 -1,0 0,4 16,0 0,-4 -1,0 0,3 -2,0 0,-3 2,0 0,-6 -2,0 0,-3 2,0 0,3 1,0 z M 11,2 11,5 9,5 9,2 z m 0,9 0,3 -2,0 0,-3 z M 7,2 7,5 5,5 5,2 z m 0,9 0,3 -2,0 0,-3 z"
     style="fill:#999999;fill-opacity:0.912371168;fill-rule:nonzero"
     inkscape:connector-curvature="0"
     sodipodi:nodetypes="ccccccccccccccccccccccccccccccccccccccccccccccccc" />
  <path
     style="fill:#e6e6e6;fill-opacity:0.912371168;fill-rule:nonzero;stroke:none"
     d="m 19.435659,-1.828125 0,3.65625 21,0 0,-3.65625 -21,0 z m 1,17.65625 0,2.375 21.65625,0 0,-2.375 -21.65625,0 z"
     id="rect2984"
     inkscape:connector-curvature="0" />
</svg>
